X: 1
T: Bonnie Kate
M: 4/4
L: 1/8
R: reel
K: Gmaj
|:g3/2f/2gf gddB|cedc BGGA|
BGGB cAAc|1 BdcB Adef:|2 BdcB A4||
|:BGGB cAdB|ecce fddf|
g3/2a/2ge dfgd|cedc BGG2:|
